X: 814
T: Alas! The Pain Is In My Heart
R: waltz
M: 3/4
K: Gmajor
d/c/|BG Bc/d/ ed/c/|B2GGG2|cB cd ed/c/|d2g>a gg/a/|
bg af ge/d/|e>f g>a gg/f/|e>d ed/c/ dc/B/|A>B GG Gd/c/|
BG Bc/d/ ed/c/|B2 GGG2|cB cd ed/c/|d2 g>a gg/a/|
ba/g/ ag/f/ gf/e/|de/f/ gg g>f|e>d c>B A>G|A>B GG Gg/a/|
ba/g/ ag/f/ gf/e/|de/f/ gg gf|e>d c>B A>G|A>B GG G||

